storage/app/icons/phosphoricons/light/cursor-text-light.svg

<svg xmlns="http://www.w3.org/2000/svg" fill="currentColor" viewBox="0 0 256 256"><path d="M182 208a6 6 0 0 1-6 6h-16a38 38 0 0 1-32-17.55A38 38 0 0 1 96 214H80a6 6 0 0 1 0-12h16a26 26 0 0 0 26-26v-42h-18a6 6 0 0 1 0-12h18V80a26 26 0 0 0-26-26H80a6 6 0 0 1 0-12h16a38 38 0 0 1 32 17.55A38 38 0 0 1 160 42h16a6 6 0 0 1 0 12h-16a26 26 0 0 0-26 26v42h18a6 6 0 0 1 0 12h-18v42a26 26 0 0 0 26 26h16a6 6 0 0 1 6 6"/></svg>

<svg xmlns="http://www.w3.org/2000/svg" viewBox="0 0 256 256" fill="currentColor"><path d="M182,208a6,6,0,0,1-6,6H160a38,38,0,0,1-32-17.55A38,38,0,0,1,96,214H80a6,6,0,0,1,0-12H96a26,26,0,0,0,26-26V134H104a6,6,0,0,1,0-12h18V80A26,26,0,0,0,96,54H80a6,6,0,0,1,0-12H96a38,38,0,0,1,32,17.55A38,38,0,0,1,160,42h16a6,6,0,0,1,0,12H160a26,26,0,0,0-26,26v42h18a6,6,0,0,1,0,12H134v42a26,26,0,0,0,26,26h16A6,6,0,0,1,182,208Z"/></svg>
